Newaita-dark/apps/32/com.github.bcedu.museic.svg

<svg height="32pt" viewBox="0 0 32 32" width="32pt" xmlns="http://www.w3.org/2000/svg" xmlns:xlink="http://www.w3.org/1999/xlink"><linearGradient id="a"><stop offset="0" stop-opacity=".313725"/><stop offset=".222222" stop-opacity=".27451"/><stop offset="1" stop-opacity="0"/></linearGradient><radialGradient id="b" cx="450.90894" cy="189.57936" gradientTransform="matrix(.00000016 -.109386 -.126575 -.00000014 33.224095 77.819923)" gradientUnits="userSpaceOnUse" r="21.166656" xlink:href="#a"/><radialGradient id="c" cx="450.90894" cy="189.57936" gradientTransform="matrix(-.00000016 .109386 .126575 .00000014 -15.363014 -21.752072)" gradientUnits="userSpaceOnUse" r="21.166656" xlink:href="#a"/><radialGradient id="d" cx="450.90894" cy="189.57936" gradientTransform="matrix(-.00000016 -.109386 .126575 -.00000014 -15.363014 77.819923)" gradientUnits="userSpaceOnUse" r="21.166656" xlink:href="#a"/><radialGradient id="e" cx="450.90894" cy="189.57936" gradientTransform="matrix(.00000016 .109386 -.126575 .00000014 33.224094 -21.752073)" gradientUnits="userSpaceOnUse" r="21.166656" xlink:href="#a"/><linearGradient id="f" gradientTransform="matrix(.00343545 0 0 .0875084 8.053391 7.600715)" gradientUnits="userSpaceOnUse" x1="255.32306" x2="255.32304" y1="233.5" y2="254.66666"><stop offset="0" stop-opacity=".27451"/><stop offset="1" stop-opacity="0"/></linearGradient><linearGradient id="g" gradientUnits="userSpaceOnUse" x1="15.87653928759" x2="15.87653928759" y1="28.03396006409" y2="2.89612734392"><stop offset="0" stop-color="#424242"/><stop offset="1" stop-color="#616161"/></linearGradient><path d="m9.527344 28.035156h2.378906v-1.851562h-2.378906zm0 0" fill="url(#b)"/><path d="m8.335938 28.035156h-2.382813v1.851563h2.382813zm0 0" fill="url(#c)"/><path d="m8.335938 28.035156h-2.382813v-1.851562h2.382813zm0 0" fill="url(#d)"/><path d="m9.527344 28.035156h2.378906v1.851563h-2.378906zm0 0" fill="url(#e)"/><path d="m8.335938 27.570312h1.191406v2.316407h-1.191406zm0 0" fill="url(#f)"/><path d="m11.90625 2.894531c-.867188 0-1.5625.816407-1.5625 1.824219v15.617188c-.492188-.144532-1.015625-.222657-1.566406-.222657-2.601563 0-4.695313 1.746094-4.695313 3.914063 0 2.167968 2.09375 3.914062 4.695313 3.914062 2.601562 0 4.695312-1.746094 4.695312-3.914062v-17.21875c0-.433594.347656-.78125.78125-.78125h7.828125c.433594 0 .78125.347656.78125.78125v8.832031c-.488281-.144531-1.015625-.222656-1.5625-.222656-2.601562 0-4.699219 1.746093-4.699219 3.914062s2.097657 3.914063 4.699219 3.914063c2.601563 0 4.695313-1.746094 4.695313-3.914063v-14.613281c0-1.007812-.699219-1.824219-1.566406-1.824219zm0 0" fill="url(#g)"/><path d="m11.90625 2.894531c-.867188 0-1.5625.816407-1.5625 1.824219v.332031c0-1.011719.695312-1.824219 1.5625-1.824219h12.523438c.867187 0 1.566406.8125 1.566406 1.824219v-.332031c0-1.007812-.699219-1.824219-1.566406-1.824219zm9.394531 12.523438c-2.601562 0-4.699219 1.746093-4.699219 3.914062 0 .054688.003907.109375.007813.164063.101563-2.089844 2.15625-3.746094 4.691406-3.746094.546875 0 1.074219.078125 1.5625.21875v-.328125c-.488281-.144531-1.015625-.222656-1.5625-.222656zm-12.523437 4.695312c-2.601563 0-4.695313 1.746094-4.695313 3.914063 0 .054687 0 .109375.003907.164062.101562-2.089844 2.15625-3.746094 4.691406-3.746094.550781 0 1.074218.078126 1.566406.222657v-.332031c-.492188-.144532-1.015625-.222657-1.566406-.222657zm0 0" fill="#fff" fill-opacity=".313725"/><path d="m14.253906 5.519531c-.433594 0-.78125.351563-.78125.785157v.503906c0-.433594.347656-.78125.78125-.78125h7.828125c.433594 0 .78125.347656.78125.78125v-.503906c0-.433594-.347656-.785157-.78125-.785157zm11.742188 13.304688c0 2.167969-2.09375 3.914062-4.695313 3.914062-2.5 0-4.53125-1.609375-4.6875-3.660156-.007812.085937-.011719.167969-.011719.253906 0 2.167969 2.097657 3.914063 4.699219 3.914063 2.601563 0 4.695313-1.746094 4.695313-3.914063zm-12.523438 4.699219c0 2.167968-2.09375 3.910156-4.695312 3.910156-2.5 0-4.53125-1.609375-4.6875-3.660156-.003906.085937-.007813.167968-.007813.253906 0 2.167968 2.09375 3.914062 4.695313 3.914062 2.601562 0 4.695312-1.746094 4.695312-3.914062zm0 0" fill-opacity=".235294"/><path d="m190.48181-168.691922c-13.873675 0-24.997613 13.061253-24.997613 29.184713v249.85114c-7.874248-2.312279-16.248448-3.56216-25.060107-3.56216-41.621025 0-75.117826 27.934833-75.117826 62.619021 0 34.684187 33.496801 62.61902 75.117826 62.61902 41.621026 0 75.117827-27.934833 75.117827-62.61902v-275.473694c0-6.936838 5.561969-12.498806 12.498806-12.498806h125.238041c6.936837 0 12.498806 5.561968 12.498806 12.498806v141.299007c-7.811754-2.31228-16.248448-3.56216-24.997613-3.56216-41.621025 0-75.18032 27.934832-75.18032 62.61902s33.559295 62.61902 75.18032 62.61902c41.621026 0 75.117827-27.934832 75.117827-62.61902v-233.790174c0-16.12346-11.186432-29.184713-25.060107-29.184713zm0 0" fill="none" stroke="#212121" stroke-linecap="round" stroke-width="3" transform="matrix(.062506 0 0 .062506 0 13.438783)"/></svg>

<?xml version="1.0" encoding="UTF-8"?>
<svg xmlns="http://www.w3.org/2000/svg" xmlns:xlink="http://www.w3.org/1999/xlink" width="32pt" height="32pt" viewBox="0 0 32 32" version="1.1">
<defs>
<radialGradient id="radial0" gradientUnits="userSpaceOnUse" cx="450.90894" cy="189.57936" fx="450.90894" fy="189.57936" r="21.166656" gradientTransform="matrix(0.000000156753,-0.109386,-0.126575,-0.000000142154,33.224095,77.819923)">
<stop offset="0" style="stop-color:rgb(0%,0%,0%);stop-opacity:0.313725;"/>
<stop offset="0.222222" style="stop-color:rgb(0%,0%,0%);stop-opacity:0.27451;"/>
<stop offset="1" style="stop-color:rgb(0%,0%,0%);stop-opacity:0;"/>
</radialGradient>
<radialGradient id="radial1" gradientUnits="userSpaceOnUse" cx="450.90894" cy="189.57936" fx="450.90894" fy="189.57936" r="21.166656" gradientTransform="matrix(-0.000000156753,0.109386,0.126575,0.000000142154,-15.363014,-21.752072)">
<stop offset="0" style="stop-color:rgb(0%,0%,0%);stop-opacity:0.313725;"/>
<stop offset="0.222222" style="stop-color:rgb(0%,0%,0%);stop-opacity:0.27451;"/>
<stop offset="1" style="stop-color:rgb(0%,0%,0%);stop-opacity:0;"/>
</radialGradient>
<radialGradient id="radial2" gradientUnits="userSpaceOnUse" cx="450.90894" cy="189.57936" fx="450.90894" fy="189.57936" r="21.166656" gradientTransform="matrix(-0.000000156753,-0.109386,0.126575,-0.000000142154,-15.363014,77.819923)">
<stop offset="0" style="stop-color:rgb(0%,0%,0%);stop-opacity:0.313725;"/>
<stop offset="0.222222" style="stop-color:rgb(0%,0%,0%);stop-opacity:0.27451;"/>
<stop offset="1" style="stop-color:rgb(0%,0%,0%);stop-opacity:0;"/>
</radialGradient>
<radialGradient id="radial3" gradientUnits="userSpaceOnUse" cx="450.90894" cy="189.57936" fx="450.90894" fy="189.57936" r="21.166656" gradientTransform="matrix(0.000000156753,0.109386,-0.126575,0.000000142154,33.224094,-21.752073)">
<stop offset="0" style="stop-color:rgb(0%,0%,0%);stop-opacity:0.313725;"/>
<stop offset="0.222222" style="stop-color:rgb(0%,0%,0%);stop-opacity:0.27451;"/>
<stop offset="1" style="stop-color:rgb(0%,0%,0%);stop-opacity:0;"/>
</radialGradient>
<linearGradient id="linear0" gradientUnits="userSpaceOnUse" x1="255.32306" y1="233.5" x2="255.32304" y2="254.66666" gradientTransform="matrix(0.00343545,0,0,0.0875084,8.053391,7.600715)">
<stop offset="0" style="stop-color:rgb(0%,0%,0%);stop-opacity:0.27451;"/>
<stop offset="1" style="stop-color:rgb(0%,0%,0%);stop-opacity:0;"/>
</linearGradient>
<linearGradient id="linear1" gradientUnits="userSpaceOnUse" x1="981.43005" y1="1457.5077" x2="981.43005" y2="815.11719" gradientTransform="matrix(0.0391317,0,0,0.0391317,-22.528487,-29.000794)">
<stop offset="0" style="stop-color:rgb(25.882353%,25.882353%,25.882353%);stop-opacity:1;"/>
<stop offset="1" style="stop-color:rgb(38.039216%,38.039216%,38.039216%);stop-opacity:1;"/>
</linearGradient>
</defs>
<g id="surface1">
<path style=" stroke:none;fill-rule:nonzero;fill:url(#radial0);" d="M 9.527344 28.035156 L 11.90625 28.035156 L 11.90625 26.183594 L 9.527344 26.183594 Z M 9.527344 28.035156 "/>
<path style=" stroke:none;fill-rule:nonzero;fill:url(#radial1);" d="M 8.335938 28.035156 L 5.953125 28.035156 L 5.953125 29.886719 L 8.335938 29.886719 Z M 8.335938 28.035156 "/>
<path style=" stroke:none;fill-rule:nonzero;fill:url(#radial2);" d="M 8.335938 28.035156 L 5.953125 28.035156 L 5.953125 26.183594 L 8.335938 26.183594 Z M 8.335938 28.035156 "/>
<path style=" stroke:none;fill-rule:nonzero;fill:url(#radial3);" d="M 9.527344 28.035156 L 11.90625 28.035156 L 11.90625 29.886719 L 9.527344 29.886719 Z M 9.527344 28.035156 "/>
<path style=" stroke:none;fill-rule:nonzero;fill:url(#linear0);" d="M 8.335938 27.570312 L 9.527344 27.570312 L 9.527344 29.886719 L 8.335938 29.886719 Z M 8.335938 27.570312 "/>
<path style=" stroke:none;fill-rule:nonzero;fill:url(#linear1);" d="M 11.90625 2.894531 C 11.039062 2.894531 10.34375 3.710938 10.34375 4.71875 L 10.34375 20.335938 C 9.851562 20.191406 9.328125 20.113281 8.777344 20.113281 C 6.175781 20.113281 4.082031 21.859375 4.082031 24.027344 C 4.082031 26.195312 6.175781 27.941406 8.777344 27.941406 C 11.378906 27.941406 13.472656 26.195312 13.472656 24.027344 L 13.472656 6.808594 C 13.472656 6.375 13.820312 6.027344 14.253906 6.027344 L 22.082031 6.027344 C 22.515625 6.027344 22.863281 6.375 22.863281 6.808594 L 22.863281 15.640625 C 22.375 15.496094 21.847656 15.417969 21.300781 15.417969 C 18.699219 15.417969 16.601562 17.164062 16.601562 19.332031 C 16.601562 21.5 18.699219 23.246094 21.300781 23.246094 C 23.902344 23.246094 25.996094 21.5 25.996094 19.332031 L 25.996094 4.71875 C 25.996094 3.710938 25.296875 2.894531 24.429688 2.894531 Z M 11.90625 2.894531 "/>
<path style=" stroke:none;fill-rule:nonzero;fill:rgb(100%,100%,100%);fill-opacity:0.313725;" d="M 11.90625 2.894531 C 11.039062 2.894531 10.34375 3.710938 10.34375 4.71875 L 10.34375 5.050781 C 10.34375 4.039062 11.039062 3.226562 11.90625 3.226562 L 24.429688 3.226562 C 25.296875 3.226562 25.996094 4.039062 25.996094 5.050781 L 25.996094 4.71875 C 25.996094 3.710938 25.296875 2.894531 24.429688 2.894531 Z M 21.300781 15.417969 C 18.699219 15.417969 16.601562 17.164062 16.601562 19.332031 C 16.601562 19.386719 16.605469 19.441406 16.609375 19.496094 C 16.710938 17.40625 18.765625 15.75 21.300781 15.75 C 21.847656 15.75 22.375 15.828125 22.863281 15.96875 L 22.863281 15.640625 C 22.375 15.496094 21.847656 15.417969 21.300781 15.417969 Z M 8.777344 20.113281 C 6.175781 20.113281 4.082031 21.859375 4.082031 24.027344 C 4.082031 24.082031 4.082031 24.136719 4.085938 24.191406 C 4.1875 22.101562 6.242188 20.445312 8.777344 20.445312 C 9.328125 20.445312 9.851562 20.523438 10.34375 20.667969 L 10.34375 20.335938 C 9.851562 20.191406 9.328125 20.113281 8.777344 20.113281 Z M 8.777344 20.113281 "/>
<path style=" stroke:none;fill-rule:nonzero;fill:rgb(0%,0%,0%);fill-opacity:0.235294;" d="M 14.253906 5.519531 C 13.820312 5.519531 13.472656 5.871094 13.472656 6.304688 L 13.472656 6.808594 C 13.472656 6.375 13.820312 6.027344 14.253906 6.027344 L 22.082031 6.027344 C 22.515625 6.027344 22.863281 6.375 22.863281 6.808594 L 22.863281 6.304688 C 22.863281 5.871094 22.515625 5.519531 22.082031 5.519531 Z M 25.996094 18.824219 C 25.996094 20.992188 23.902344 22.738281 21.300781 22.738281 C 18.800781 22.738281 16.769531 21.128906 16.613281 19.078125 C 16.605469 19.164062 16.601562 19.246094 16.601562 19.332031 C 16.601562 21.5 18.699219 23.246094 21.300781 23.246094 C 23.902344 23.246094 25.996094 21.5 25.996094 19.332031 Z M 13.472656 23.523438 C 13.472656 25.691406 11.378906 27.433594 8.777344 27.433594 C 6.277344 27.433594 4.246094 25.824219 4.089844 23.773438 C 4.085938 23.859375 4.082031 23.941406 4.082031 24.027344 C 4.082031 26.195312 6.175781 27.941406 8.777344 27.941406 C 11.378906 27.941406 13.472656 26.195312 13.472656 24.027344 Z M 13.472656 23.523438 "/>
<path style="fill:none;stroke-width:3;stroke-linecap:round;stroke-linejoin:miter;stroke:rgb(12.941176%,12.941176%,12.941176%);stroke-opacity:1;stroke-miterlimit:4;" d="M 190.48181 -168.691922 C 176.608135 -168.691922 165.484197 -155.630669 165.484197 -139.507209 L 165.484197 110.343931 C 157.609949 108.031652 149.235749 106.781771 140.42409 106.781771 C 98.803065 106.781771 65.306264 134.716604 65.306264 169.400792 C 65.306264 204.084979 98.803065 232.019812 140.42409 232.019812 C 182.045116 232.019812 215.541917 204.084979 215.541917 169.400792 L 215.541917 -106.072902 C 215.541917 -113.00974 221.103886 -118.571708 228.040723 -118.571708 L 353.278764 -118.571708 C 360.215601 -118.571708 365.77757 -113.00974 365.77757 -106.072902 L 365.77757 35.226105 C 357.965816 32.913825 349.529122 31.663945 340.779957 31.663945 C 299.158932 31.663945 265.599637 59.598777 265.599637 94.282965 C 265.599637 128.967153 299.158932 156.901985 340.779957 156.901985 C 382.400983 156.901985 415.897784 128.967153 415.897784 94.282965 L 415.897784 -139.507209 C 415.897784 -155.630669 404.711352 -168.691922 390.837677 -168.691922 Z M 190.48181 -168.691922 " transform="matrix(0.062506,0,0,0.062506,0,13.438783)"/>
</g>
</svg>
